common/src/main/resources/icons/plugins/ruby/expui/rake/rakeTask.svg

<svg xmlns="http://www.w3.org/2000/svg" width="16" height="16" fill="#F06292" data-big="true" viewBox="0.344 0.198 31.58 31.302"><mask id="a" width="400%" height="400%" x="-200%" y="-200%"><rect width="400%" height="400%" x="-200%" y="-200%" fill="#fff"/><path d="M22 4c.765-.558 5.093-.251 6 0s.899 1.487 0 2-5.231.207-6 0-.765-1.442 0-2"/></mask><g mask="url(#a)"><path d="M20 3c-.277.416-.125 3.516 0 4s.23.897 1 1c.938.125.203.766 0 1q-.203.234-9 11-8.61-.39-9 0c-.39.39-.689.611-1 1q-.311.389 0 8v1h2v-4h2v4h2v-4h2v4h2v-4h2v4h2v-4h2v4h2v-4h2v4h2v-4h2v4h2q.388-6.315 0-9c-.071-.493-.62-.679-1-1q-.38-.321-11 0Q25.002 7.861 26 8c1.234.172 2.558.179 3 0s.723-.584 1-1 .797-3 0-4-.611-.689-1-1-7.078-.484-8 0-.723.584-1 1"/></g></svg>

<!--
  - The MIT License (MIT)
  -
  - Copyright (c) 2015-2024 Elior "Mallowigi" Boukhobza
  -
  - Permission is hereby granted, free of charge, to any person obtaining a copy
  - of this software and associated documentation files (the "Software"), to deal
  - in the Software without restriction, including without limitation the rights
  - to use, copy, modify, merge, publish, distribute, sublicense, and/or sell
  - copies of the Software, and to permit persons to whom the Software is
  - furnished to do so, subject to the following conditions:
  -
  - The above copyright notice and this permission notice shall be included in all
  - copies or substantial portions of the Software.
  -
  - THE SOFTWARE IS PROVIDED "AS IS", WITHOUT WARRANTY OF ANY KIND, EXPRESS OR
  - IMPLIED, INCLUDING BUT NOT LIMITED TO THE WARRANTIES OF MERCHANTABILITY,
  - FITNESS FOR A PARTICULAR PURPOSE AND NONINFRINGEMENT. IN NO EVENT SHALL THE
  - AUTHORS OR COPYRIGHT HOLDERS BE LIABLE FOR ANY CLAIM, DAMAGES OR OTHER
  - LIABILITY, WHETHER IN AN ACTION OF CONTRACT, TORT OR OTHERWISE, ARISING FROM,
  - OUT OF OR IN CONNECTION WITH THE SOFTWARE OR THE USE OR OTHER DEALINGS IN THE
  - SOFTWARE.
  -->

<svg data-big="true" xmlns="http://www.w3.org/2000/svg" viewBox="0.344 0.198 31.58 31.302" width="16px" height="16px"
     fill="#F06292">
  <mask id="_mask_Fxcw0HwLgsyULfTBJbLwfjMgSatMevCN" x="-200%" y="-200%" width="400%" height="400%">
    <rect x="-200%" y="-200%" width="400%" height="400%" fill="white"/>
    <path
      d=" M 22 4 C 22.765 3.442 27.093 3.749 28 4 C 28.907 4.251 28.899 5.487 28 6 C 27.101 6.513 22.769 6.207 22 6 C 21.231 5.793 21.235 4.558 22 4 Z "/>
  </mask>
  <g mask="url(#_mask_Fxcw0HwLgsyULfTBJbLwfjMgSatMevCN)">
    <path
      d=" M 20 3 C 19.723 3.416 19.875 6.516 20 7 C 20.125 7.484 20.23 7.897 21 8 C 21.938 8.125 21.203 8.766 21 9 Q 20.797 9.234 12 20 Q 3.39 19.61 3 20 C 2.61 20.39 2.311 20.611 2 21 Q 1.689 21.389 2 29 L 2 30 L 4 30 L 4 26 L 6 26 L 6 30 L 8 30 L 8 26 L 10 26 L 10 30 L 12 30 L 12 26 L 14 26 L 14 30 L 16 30 L 16 26 L 18 26 L 18 30 L 20 30 L 20 26 L 22 26 L 22 30 L 24 30 L 24 26 L 26 26 L 26 30 L 28 30 Q 28.388 23.685 28 21 C 27.929 20.507 27.38 20.321 27 20 Q 26.62 19.679 16 20 Q 25.002 7.861 26 8 C 27.234 8.172 28.558 8.179 29 8 C 29.442 7.821 29.723 7.416 30 7 C 30.277 6.584 30.797 4 30 3 C 29.203 2 29.389 2.311 29 2 C 28.611 1.689 21.922 1.516 21 2 C 20.078 2.484 20.277 2.584 20 3 Z "/>
  </g>
</svg>
